assets/svgs/misc-grey/MiscGrey1.svg

<svg width="39" height="39" viewBox="0 0 39 39" fill="none" xmlns="http://www.w3.org/2000/svg">
<path fill-rule="evenodd" clip-rule="evenodd" d="M26.532 17.768H21.199V12.435C21.199 11.606 20.527 10.935 19.699 10.935C18.87 10.935 18.199 11.606 18.199 12.435V17.768H12.866C12.037 17.768 11.366 18.439 11.366 19.268C11.366 20.097 12.037 20.768 12.866 20.768H18.199V26.101C18.199 26.93 18.87 27.601 19.699 27.601C20.527 27.601 21.199 26.93 21.199 26.101V20.768H26.532C27.36 20.768 28.032 20.097 28.032 19.268C28.032 18.439 27.36 17.768 26.532 17.768ZM31.189 30.758C28.12 33.828 24.04 35.518 19.699 35.518C15.358 35.518 11.278 33.828 8.20797 30.758C5.13897 27.689 3.44897 23.608 3.44897 19.268C3.44897 14.927 5.13897 10.847 8.20797 7.77699C11.376 4.60899 15.538 3.02499 19.699 3.02499C23.86 3.02499 28.021 4.60899 31.189 7.77699C37.525 14.113 37.525 24.422 31.189 30.758ZM33.311 5.65599C25.805 -1.85001 13.593 -1.85001 6.08697 5.65599C2.45097 9.29199 0.448975 14.126 0.448975 19.268C0.448975 24.41 2.45097 29.244 6.08697 32.879C9.72297 36.516 14.557 38.518 19.699 38.518C24.841 38.518 29.675 36.516 33.311 32.879C40.816 25.374 40.816 13.162 33.311 5.65599Z" fill="#1A1919"/>
</svg>

<svg xmlns="http://www.w3.org/2000/svg" viewBox="0 0 39 39"><path d="M26.532 17.768h-5.333v-5.333a1.5 1.5 0 10-3 0v5.333h-5.333a1.5 1.5 0 100 3h5.333v5.333a1.5 1.5 0 103 0v-5.333h5.333a1.5 1.5 0 100-3zm4.657 12.99a16.139 16.139 0 01-11.49 4.76c-4.341 0-8.421-1.69-11.491-4.76a16.143 16.143 0 01-4.759-11.49c0-4.341 1.69-8.421 4.759-11.491a16.201 16.201 0 0111.491-4.752c4.161 0 8.322 1.584 11.49 4.752 6.336 6.336 6.336 16.645 0 22.981zm2.122-25.102c-7.506-7.506-19.718-7.506-27.224 0A19.124 19.124 0 00.449 19.268a19.12 19.12 0 005.638 13.611 19.12 19.12 0 0013.612 5.639 19.12 19.12 0 0013.612-5.639c7.505-7.505 7.505-19.717 0-27.223z" /></svg>
